X:1
T:Bean an Fhir Rua
T:The Red Haired Man's Wife
T: flat pipes in C
M:3/4
L:1/8
K:G
[:B2 c>(d d2)| f4 e>(d d4)| B>G c4| B>cA>(G G3)|{G} F>(G G4)|
d>Bc>B G2| B3 c>(d d4)z |d3 e>f g4|{a} g2 f>(d d3)| c>B c4|
d>Bc>B G2| B2 c>(d d3)z|d2 e>f g4|{a} g2 f>(d d3)| c>B c4|
B2 c>(d _d2)| e4 f2 e>(d d4)| B>G c4| B>cA>G G3|{G} F>(G G4):|]







